libs/ui/packages/crypto-icons/src/svg/MLN.svg

<svg width="24" height="24" viewBox="0 0 24 24" fill="none">
<path fill-rule="evenodd" clip-rule="evenodd" d="M6.47025 15.093L10.4243 17.412V18.7087L5.25 15.6637V7.72125L12 3.75L18.75 7.72125V15.6637L13.5758 18.7087V17.4113L17.529 15.093L16.509 14.5035L16.6425 14.2717L17.6498 14.8538V8.96475L12.5347 11.9963V20.6663L12 21L11.4645 20.6663V11.9963L6.35025 8.96475V14.853L7.35675 14.2717L7.49025 14.5043L6.47025 15.093ZM11.8515 5.1105L6.885 8.02425L12 11.0565L17.115 8.02425L12.1193 5.09325V6.29625H11.8515V5.1105ZM11.8515 7.0545H12.1193V8.29725H11.8515V7.0545ZM11.8515 9.0555H12.1193V10.2983L11.985 10.359L11.8515 10.299V9.0555ZM16.0215 13.893L15.888 14.1255L14.811 13.503L14.9452 13.2712L16.0215 13.8937V13.893ZM14.3228 12.8925L14.1885 13.125L13.1122 12.5025L13.1273 12.357L13.2457 12.2715L14.3228 12.8925ZM7.97775 13.893L9.054 13.2712L9.18825 13.5037L8.112 14.1248L7.97775 13.893ZM9.67725 12.8925L10.7535 12.2715L10.8735 12.357L10.887 12.5033L9.81075 13.1243L9.67725 12.8925Z" fill="white"/>
<path fill-rule="evenodd" clip-rule="evenodd" d="M6.47025 14.718L10.4243 17.037V18.3337L5.25 15.2887V7.34625L12 3.375L18.75 7.34625V15.2887L13.5758 18.3337V17.0363L17.529 14.718L16.509 14.1285L16.6425 13.8967L17.6498 14.4788V8.58975L12.5347 11.6213V20.2913L12 20.625L11.4645 20.2913V11.6213L6.35025 8.58975V14.478L7.35675 13.8967L7.49025 14.1293L6.47025 14.718ZM11.8515 4.7355L6.885 7.64925L12 10.6815L17.115 7.64925L12.1193 4.71825V5.92125H11.8515V4.7355ZM11.8515 6.6795H12.1193V7.92225H11.8515V6.6795ZM11.8515 8.6805H12.1193V9.92325L11.985 9.984L11.8515 9.924V8.6805ZM16.0215 13.518L15.888 13.7505L14.811 13.128L14.9452 12.8962L16.0215 13.5187V13.518ZM14.3228 12.5175L14.1885 12.75L13.1122 12.1275L13.1273 11.982L13.2457 11.8965L14.3228 12.5175ZM7.97775 13.518L9.054 12.8962L9.18825 13.1287L8.112 13.7498L7.97775 13.518ZM9.67725 12.5175L10.7535 11.8965L10.8735 11.982L10.887 12.1283L9.81075 12.7493L9.67725 12.5175Z" fill="#0B1529"/>
</svg>

<svg width="24" height="24" viewBox="0 0 24 24" fill="none"><path fill="#fff" fill-rule="evenodd" d="m6.47 15.093 3.954 2.319v1.297L5.25 15.664V7.72L12 3.75l6.75 3.971v7.943l-5.174 3.045V17.41l3.953-2.318-1.02-.59.133-.231 1.008.582v-5.89l-5.115 3.032v8.67L12 21l-.536-.334v-8.67L6.35 8.965v5.888l1.007-.581.133.232zm5.382-9.982L6.885 8.024 12 11.057l5.115-3.033-4.996-2.93v1.202h-.268zm0 1.944h.267v1.242h-.268zm0 2h.267v1.243l-.134.061-.133-.06zm4.17 4.838-.134.232-1.077-.622.134-.232zm-1.7-1-.133.232-1.077-.623.015-.145.119-.085zm-6.344 1 1.076-.622.134.233-1.076.62zm1.7-1 1.076-.622.12.086.013.146-1.076.621z" clip-rule="evenodd"/><path fill="#0b1529" fill-rule="evenodd" d="m6.47 14.718 3.954 2.319v1.297L5.25 15.289V7.346L12 3.375l6.75 3.971v7.943l-5.174 3.045v-1.298l3.953-2.318-1.02-.59.133-.231 1.008.582v-5.89l-5.115 3.032v8.67l-.535.334-.536-.334v-8.67L6.35 8.59v5.888l1.007-.581.133.232zm5.382-9.982L6.885 7.649 12 10.681l5.115-3.032-4.996-2.93V5.92h-.268zm0 1.944h.267v1.242h-.268zm0 2h.267v1.243l-.134.061-.133-.06zm4.17 4.838-.134.232-1.077-.622.134-.232zm-1.7-1-.133.232-1.077-.623.015-.145.119-.085zm-6.344 1 1.076-.622.134.233-1.076.62zm1.7-1 1.076-.622.12.086.013.146-1.076.621z" clip-rule="evenodd"/></svg>
